X:1
T:Title
%%score { 1 | 2 }
L:1/8
Q:1/4=110
M:4/4
K:F
V:1 treble nm="Grand Piano"
V:2 bass 
V:1
 A2 C2 A2 C2 | [DG][DF][CE]D C2 EF | [EG]4 [Gc]4 | A4 F4 | A2 C2 A2 C2 | [DG][DF][CE]D C2 F2 | %6
w: W.~H.~Doane * * *||||||
 A2 [DG]2 F2 E2 | F6 z2 | A2 [Ac]2 [FA]2 [Ac]2 | [Fd]>[Fc] [Fe]>[Fd] [Fc]2 [FA]2 | %10
w: ||||
 [EG]2 [GB]2 [EG]2 [GB]2 | [GB]>[EG] [Ed]>[Ec] c2 A2 | A2 [Ac]2 [FA]2 [Ac]2 | %13
w: |||
 [Fd]>[Fc] [Fe]>[Fd] [Fc]2 [GB]2 | [FA]2 [DG]2 F2 E2 | F6 z2 |] %16
w: |||
V:2
 [F,CF]2 [F,A,]2 [F,CF]2 [F,A,]2 | [B,,B,][B,,B,][B,,F,][B,,F,B,] [F,A,]2 [G,B,C][F,A,C] | %2
 [C,C]4 [E,C]4 | [F,CF]4 [F,A,C]4 | [F,CF]2 [F,A,]2 [F,CF]2 [F,A,]2 | %5
 [B,,B,][B,,B,][B,,F,][B,,F,B,] [F,A,]2 [F,A,C]2 | [F,CF]2 [B,,B,]2 [C,A,C]2 [C,B,C]2 | %7
 [F,A,C]6 z2 | [F,CF]2 [F,C]2 [F,C]2 [F,C]2 | [B,,B,]>[B,,A,] [B,,C]>[D,B,] [F,A,]2 [F,C]2 | %10
 [C,C]2 [C,C]2 [C,C]2 [C,C]2 | [C,C]>[C,C] [C,B,]>[C,B,] [F,A,F]2 [F,CF]2 | %12
 [F,CF]2 [F,F]2 [F,C]2 [F,C]2 | [B,,B,]>[B,,A,] [B,,C]>[D,B,] [F,A,]2 [E,C]2 | %14
 [F,C]2 [B,,B,]2 [C,A,C]2 [C,B,C]2 | [F,A,C]6 z2 |] %16

